icons/e-mail.svg

<svg width="32" height="32" viewBox="0 0 32 32" fill="none" xmlns="http://www.w3.org/2000/svg">
<path d="M0.667993 5.94725C5.05987 9.66669 12.7662 16.2103 15.0312 18.2506C15.3353 18.526 15.6614 18.666 16 18.666C16.3379 18.666 16.6634 18.5273 16.9668 18.2533C19.2337 16.2109 26.9401 9.66669 31.332 5.94725C31.6055 5.71612 31.6472 5.30987 31.4258 5.02731C30.914 4.37437 30.151 4 29.3333 4H2.66668C1.84899 4 1.08593 4.37438 0.574244 5.02738C0.352869 5.30988 0.394556 5.71612 0.667993 5.94725Z" fill="#CD06FF"/>
<path d="M31.6133 7.96279C31.377 7.85279 31.099 7.89116 30.9024 8.05916C26.0319 12.188 19.8158 17.4804 17.86 19.2427C16.7623 20.2336 15.2389 20.2336 14.1386 19.2414C12.054 17.3632 5.0735 11.4289 1.09763 8.0591C0.899688 7.8911 0.621063 7.85404 0.386687 7.96273C0.151062 8.07216 0 8.30785 0 8.5676V25.3332C0 26.804 1.19594 27.9999 2.66669 27.9999H29.3334C30.8041 27.9999 32 26.804 32 25.3332V8.5676C32 8.30785 31.8489 8.07154 31.6133 7.96279Z" fill="#CD06FF"/>
</svg>

<svg width="32" height="32" fill="none" xmlns="http://www.w3.org/2000/svg"><path d="M.668 5.947C5.06 9.667 12.766 16.21 15.031 18.251c.304.275.63.415.969.415.338 0 .663-.139.967-.413 2.267-2.042 9.973-8.586 14.365-12.306a.666.666 0 0 0 .094-.92A2.648 2.648 0 0 0 29.333 4H2.667c-.818 0-1.581.374-2.093 1.027a.666.666 0 0 0 .094.92Z" fill="#CD06FF"/><path d="M31.613 7.963a.664.664 0 0 0-.71.096c-4.871 4.129-11.087 9.421-13.043 11.184-1.098.99-2.621.99-3.721-.002C12.054 17.363 5.073 11.43 1.098 8.06A.667.667 0 0 0 0 8.568v16.765A2.67 2.67 0 0 0 2.667 28h26.666A2.67 2.67 0 0 0 32 25.333V8.568a.666.666 0 0 0-.387-.605Z" fill="#CD06FF"/></svg>
